!!!OTL: GESTERN ABEND GIENG ICH AUS
!!!ARE: Europa, Mitteleuropa, Deutschland
!!!SCT: E0167
!!!YEM: Copyright 1995, estate of Helmut Schaffrath.
**kern
*ICvox
*Ivox
*M2/4
*k[f#]
*G:
=1
{8d
8g
8g
8g
=2
8f#
8a
4a}
=3
{8b
8b
8cc
8a
=4
8a
8g
4g}
=5
{8dd
8b
8b
8g
=6
8g
8e
4g}
=7
{8cc
8b
8a
8g
=8
8f#
8e
4d}
=9
{8d
8g
8g
8g
=10
8f#
8a
4a}
=11
{8b
8b
8cc
8a
=12
8a
8g
4g}
==
!!!AGN: erzaehlendes Volks - Lied, Sage, Tier - Maerchen, Ballade ?
!!!ONB: ESAC (Essen Associative Code) Database: ERK1
!!!AMT: simple duple
!!!AIN: vox
!!!EED: Helmut Schaffrath
!!!EEV: 1.0
*-
